Newaita-dark/apps/16/kwrite.svg

<?xml version="1.0" encoding="UTF-8"?>
<svg xmlns="http://www.w3.org/2000/svg" xmlns:xlink="http://www.w3.org/1999/xlink" width="16pt" height="16pt" viewBox="0 0 16 16" version="1.1">
<defs>
<linearGradient id="linear0" gradientUnits="userSpaceOnUse" x1="254" y1="233.5" x2="254" y2="254.666672" gradientTransform="matrix(0.031253,0,0,0.031253,-0.00000190753,6.719393)">
<stop offset="0" style="stop-color:rgb(0%,0%,0%);stop-opacity:0.27451;"/>
<stop offset="1" style="stop-color:rgb(0%,0%,0%);stop-opacity:0;"/>
</linearGradient>
<radialGradient id="radial0" gradientUnits="userSpaceOnUse" cx="450.908936" cy="189.579361" fx="450.908936" fy="189.579361" r="21.166656" gradientTransform="matrix(0.0000000870852,-0.0390662,-0.0703192,-0.0000000507693,25.073043,31.797666)">
<stop offset="0" style="stop-color:rgb(0%,0%,0%);stop-opacity:0.313725;"/>
<stop offset="0.222222" style="stop-color:rgb(0%,0%,0%);stop-opacity:0.27451;"/>
<stop offset="1" style="stop-color:rgb(0%,0%,0%);stop-opacity:0;"/>
</radialGradient>
<radialGradient id="radial1" gradientUnits="userSpaceOnUse" cx="450.908936" cy="189.579361" fx="450.908936" fy="189.579361" r="21.166656" gradientTransform="matrix(-0.0000000870852,0.0390662,0.0703192,0.0000000507693,-9.196524,-3.76374)">
<stop offset="0" style="stop-color:rgb(0%,0%,0%);stop-opacity:0.313725;"/>
<stop offset="0.222222" style="stop-color:rgb(0%,0%,0%);stop-opacity:0.27451;"/>
<stop offset="1" style="stop-color:rgb(0%,0%,0%);stop-opacity:0;"/>
</radialGradient>
<radialGradient id="radial2" gradientUnits="userSpaceOnUse" cx="450.908936" cy="189.579361" fx="450.908936" fy="189.579361" r="21.166656" gradientTransform="matrix(-0.0000000870852,-0.0390662,0.0703192,-0.0000000507693,-9.196524,31.797666)">
<stop offset="0" style="stop-color:rgb(0%,0%,0%);stop-opacity:0.313725;"/>
<stop offset="0.222222" style="stop-color:rgb(0%,0%,0%);stop-opacity:0.27451;"/>
<stop offset="1" style="stop-color:rgb(0%,0%,0%);stop-opacity:0;"/>
</radialGradient>
<radialGradient id="radial3" gradientUnits="userSpaceOnUse" cx="450.908936" cy="189.579361" fx="450.908936" fy="189.579361" r="21.166656" gradientTransform="matrix(0.0000000870852,0.0390662,-0.0703192,0.0000000507693,25.073042,-3.76374)">
<stop offset="0" style="stop-color:rgb(0%,0%,0%);stop-opacity:0.313725;"/>
<stop offset="0.222222" style="stop-color:rgb(0%,0%,0%);stop-opacity:0.27451;"/>
<stop offset="1" style="stop-color:rgb(0%,0%,0%);stop-opacity:0;"/>
</radialGradient>
<linearGradient id="linear1" gradientUnits="userSpaceOnUse" x1="323.513245" y1="-141.414581" x2="323.513245" y2="-25.791676" gradientTransform="matrix(0.0376748,0,0,0.108706,-2.927007,16.820674)">
<stop offset="0" style="stop-color:rgb(74.117647%,74.117647%,74.117647%);stop-opacity:1;"/>
<stop offset="1" style="stop-color:rgb(98.039216%,98.039216%,98.039216%);stop-opacity:1;"/>
</linearGradient>
<linearGradient id="linear2" gradientUnits="userSpaceOnUse" x1="960" y1="935.118103" x2="960" y2="175.118134" >
<stop offset="0" style="stop-color:rgb(25.882353%,64.705882%,96.078431%);stop-opacity:1;"/>
<stop offset="1" style="stop-color:rgb(39.215686%,70.980392%,96.470588%);stop-opacity:1;"/>
</linearGradient>
<linearGradient id="linear3" gradientUnits="userSpaceOnUse" x1="105.833344" y1="-105.166656" x2="105.833328" y2="-121.041656" gradientTransform="matrix(1,0,0,1,148.166672,-13.229179)">
<stop offset="0" style="stop-color:rgb(81.176471%,84.705882%,86.27451%);stop-opacity:1;"/>
<stop offset="1" style="stop-color:rgb(92.54902%,93.72549%,94.509804%);stop-opacity:1;"/>
</linearGradient>
<linearGradient id="linear4" gradientUnits="userSpaceOnUse" x1="105.833344" y1="-105.166656" x2="105.833328" y2="-121.041656" gradientTransform="matrix(1,0,0,1,100.541672,-13.229179)">
<stop offset="0" style="stop-color:rgb(81.176471%,84.705882%,86.27451%);stop-opacity:1;"/>
<stop offset="1" style="stop-color:rgb(92.54902%,93.72549%,94.509804%);stop-opacity:1;"/>
</linearGradient>
<linearGradient id="linear5" gradientUnits="userSpaceOnUse" x1="105.833344" y1="-105.166656" x2="105.833328" y2="-121.041656" gradientTransform="matrix(1,0,0,1,52.916672,-13.229179)">
<stop offset="0" style="stop-color:rgb(81.176471%,84.705882%,86.27451%);stop-opacity:1;"/>
<stop offset="1" style="stop-color:rgb(92.54902%,93.72549%,94.509804%);stop-opacity:1;"/>
</linearGradient>
<linearGradient id="linear6" gradientUnits="userSpaceOnUse" x1="105.833344" y1="-105.166656" x2="105.833328" y2="-121.041656" gradientTransform="matrix(1,0,0,1,243.416672,-13.229179)">
<stop offset="0" style="stop-color:rgb(81.176471%,84.705882%,86.27451%);stop-opacity:1;"/>
<stop offset="1" style="stop-color:rgb(92.54902%,93.72549%,94.509804%);stop-opacity:1;"/>
</linearGradient>
<linearGradient id="linear7" gradientUnits="userSpaceOnUse" x1="105.833344" y1="-105.166656" x2="105.833328" y2="-121.041656" gradientTransform="matrix(1,0,0,1,195.791672,-13.229179)">
<stop offset="0" style="stop-color:rgb(81.176471%,84.705882%,86.27451%);stop-opacity:1;"/>
<stop offset="1" style="stop-color:rgb(92.54902%,93.72549%,94.509804%);stop-opacity:1;"/>
</linearGradient>
<linearGradient id="linear8" gradientUnits="userSpaceOnUse" x1="254" y1="-84" x2="254" y2="-62.833332" gradientTransform="matrix(0.0311304,0,0,0.031253,0.0105389,6.719392)">
<stop offset="0" style="stop-color:rgb(0%,0%,0%);stop-opacity:0.235294;"/>
<stop offset="1" style="stop-color:rgb(0%,0%,0%);stop-opacity:0;"/>
</linearGradient>
</defs>
<g id="surface1">
<path style=" stroke:none;fill-rule:nonzero;fill:url(#linear0);" d="M 3.96875 14.015625 L 11.90625 14.015625 L 11.90625 14.679688 L 3.96875 14.679688 Z M 3.96875 14.015625 "/>
<path style=" stroke:none;fill-rule:nonzero;fill:url(#radial0);" d="M 11.90625 14.015625 L 13.230469 14.015625 L 13.230469 13.355469 L 11.90625 13.355469 Z M 11.90625 14.015625 "/>
<path style=" stroke:none;fill-rule:nonzero;fill:url(#radial1);" d="M 3.96875 14.015625 L 2.644531 14.015625 L 2.644531 14.679688 L 3.96875 14.679688 Z M 3.96875 14.015625 "/>
<path style=" stroke:none;fill-rule:nonzero;fill:url(#radial2);" d="M 3.96875 14.015625 L 2.644531 14.015625 L 2.644531 13.355469 L 3.96875 13.355469 Z M 3.96875 14.015625 "/>
<path style=" stroke:none;fill-rule:nonzero;fill:url(#radial3);" d="M 11.90625 14.015625 L 13.230469 14.015625 L 13.230469 14.679688 L 11.90625 14.679688 Z M 11.90625 14.015625 "/>
<path style=" stroke:none;fill-rule:nonzero;fill:url(#linear1);" d="M 3.308594 1.449219 L 12.570312 1.449219 C 12.933594 1.449219 13.230469 1.746094 13.230469 2.109375 L 13.230469 13.355469 C 13.230469 13.722656 12.933594 14.015625 12.570312 14.015625 L 3.308594 14.015625 C 2.941406 14.015625 2.644531 13.722656 2.644531 13.355469 L 2.644531 2.109375 C 2.644531 1.746094 2.941406 1.449219 3.308594 1.449219 Z M 3.308594 1.449219 "/>
<path style="fill-rule:nonzero;fill:url(#linear2);stroke-width:11.338583;stroke-linecap:round;stroke-linejoin:round;stroke:rgb(12.941177%,12.941177%,12.941177%);stroke-opacity:1;stroke-miterlimit:4;" d="M 400.119292 175.258863 C 355.714081 175.258863 319.811996 210.688553 319.811996 255.093763 L 319.811996 495.070859 L 1600.004772 495.070859 L 1600.004772 255.093763 C 1600.004772 210.688553 1564.102686 175.258863 1520.169872 175.258863 Z M 400.119292 175.258863 " transform="matrix(0.00826902,0,0,0.00826902,0,0)"/>
<path style=" stroke:none;fill-rule:nonzero;fill:rgb(47.058824%,56.470591%,61.176473%);fill-opacity:0.905882;" d="M 4.628906 7.070312 L 10.253906 7.070312 C 10.4375 7.070312 10.585938 7.199219 10.585938 7.355469 L 10.585938 7.445312 C 10.585938 7.605469 10.4375 7.734375 10.253906 7.734375 L 4.628906 7.734375 C 4.449219 7.734375 4.300781 7.605469 4.300781 7.445312 L 4.300781 7.355469 C 4.300781 7.199219 4.449219 7.070312 4.628906 7.070312 Z M 4.628906 7.070312 "/>
<path style=" stroke:none;fill-rule:nonzero;fill:rgb(0%,0%,0%);fill-opacity:0.196078;" d="M 3.308594 13.980469 C 2.941406 13.980469 2.644531 13.683594 2.644531 13.316406 L 2.644531 13.234375 C 2.644531 13.601562 2.941406 13.898438 3.308594 13.898438 L 12.570312 13.898438 C 12.933594 13.898438 13.230469 13.601562 13.230469 13.234375 L 13.230469 13.316406 C 13.230469 13.683594 12.933594 13.980469 12.570312 13.980469 Z M 3.308594 13.980469 "/>
<path style=" stroke:none;fill-rule:nonzero;fill:rgb(25.882354%,25.882354%,25.882354%);fill-opacity:0.905882;" d="M 4.628906 5.417969 L 11.246094 5.417969 C 11.429688 5.417969 11.578125 5.523438 11.578125 5.660156 L 11.578125 5.835938 C 11.578125 5.972656 11.429688 6.078125 11.246094 6.078125 L 4.628906 6.078125 C 4.449219 6.078125 4.300781 5.972656 4.300781 5.835938 L 4.300781 5.660156 C 4.300781 5.523438 4.449219 5.417969 4.628906 5.417969 Z M 4.628906 5.417969 "/>
<path style=" stroke:none;fill-rule:nonzero;fill:rgb(25.882354%,25.882354%,25.882354%);fill-opacity:0.905882;" d="M 4.628906 8.726562 L 11.246094 8.726562 C 11.429688 8.726562 11.578125 8.859375 11.578125 9.027344 L 11.578125 9.085938 C 11.578125 9.25 11.429688 9.386719 11.246094 9.386719 L 4.628906 9.386719 C 4.449219 9.386719 4.300781 9.25 4.300781 9.085938 L 4.300781 9.027344 C 4.300781 8.859375 4.449219 8.726562 4.628906 8.726562 Z M 4.628906 8.726562 "/>
<path style=" stroke:none;fill-rule:nonzero;fill:rgb(100%,100%,100%);fill-opacity:0.588235;" d="M 3.308594 1.484375 C 2.941406 1.484375 2.644531 1.78125 2.644531 2.148438 L 2.644531 2.230469 C 2.644531 1.863281 2.941406 1.566406 3.308594 1.566406 L 12.570312 1.566406 C 12.933594 1.566406 13.230469 1.863281 13.230469 2.230469 L 13.230469 2.148438 C 13.230469 1.78125 12.933594 1.484375 12.570312 1.484375 Z M 3.308594 1.484375 "/>
<path style=" stroke:none;fill-rule:nonzero;fill:rgb(12.941177%,12.941177%,12.941177%);fill-opacity:1;" d="M 3.308594 1.402344 C 2.914062 1.402344 2.597656 1.71875 2.597656 2.109375 L 2.597656 13.355469 C 2.597656 13.746094 2.914062 14.0625 3.308594 14.0625 L 12.570312 14.0625 C 12.960938 14.0625 13.277344 13.746094 13.277344 13.355469 L 13.277344 2.109375 C 13.277344 1.71875 12.960938 1.402344 12.570312 1.402344 Z M 3.308594 1.496094 L 12.570312 1.496094 C 12.910156 1.496094 13.183594 1.769531 13.183594 2.109375 L 13.183594 13.355469 C 13.183594 13.695312 12.910156 13.96875 12.570312 13.96875 L 3.308594 13.96875 C 2.964844 13.96875 2.691406 13.695312 2.691406 13.355469 L 2.691406 2.109375 C 2.691406 1.769531 2.964844 1.496094 3.308594 1.496094 Z M 3.308594 1.496094 "/>
<path style=" stroke:none;fill-rule:nonzero;fill:rgb(47.058824%,56.470591%,61.176473%);fill-opacity:0.905882;" d="M 4.628906 10.378906 L 8.929688 10.378906 C 9.113281 10.378906 9.261719 10.492188 9.261719 10.632812 L 9.261719 10.785156 C 9.261719 10.925781 9.113281 11.039062 8.929688 11.039062 L 4.628906 11.039062 C 4.449219 11.039062 4.300781 10.925781 4.300781 10.785156 L 4.300781 10.632812 C 4.300781 10.492188 4.449219 10.378906 4.628906 10.378906 Z M 4.628906 10.378906 "/>
<path style="fill-rule:nonzero;fill:url(#linear3);stroke-width:3;stroke-linecap:round;stroke-linejoin:round;stroke:rgb(12.941177%,12.941177%,12.941177%);stroke-opacity:1;stroke-miterlimit:4;" d="M 246.101498 -134.257711 L 261.974983 -134.257711 C 266.349565 -134.257711 269.849231 -130.758045 269.849231 -126.383462 C 269.849231 -122.00888 266.349565 -118.384226 261.974983 -118.384226 L 246.101498 -118.384226 C 241.726916 -118.384226 238.102262 -122.00888 238.102262 -126.383462 C 238.102262 -130.758045 241.726916 -134.257711 246.101498 -134.257711 Z M 246.101498 -134.257711 " transform="matrix(0.031253,0,0,0.031253,0,6.719392)"/>
<path style="fill-rule:nonzero;fill:url(#linear4);stroke-width:3;stroke-linecap:round;stroke-linejoin:round;stroke:rgb(12.941177%,12.941177%,12.941177%);stroke-opacity:1;stroke-miterlimit:4;" d="M 198.481046 -134.257711 L 214.35453 -134.257711 C 218.729112 -134.257711 222.228778 -130.758045 222.228778 -126.383462 C 222.228778 -122.00888 218.729112 -118.384226 214.35453 -118.384226 L 198.481046 -118.384226 C 194.106464 -118.384226 190.48181 -122.00888 190.48181 -126.383462 C 190.48181 -130.758045 194.106464 -134.257711 198.481046 -134.257711 Z M 198.481046 -134.257711 " transform="matrix(0.031253,0,0,0.031253,0,6.719392)"/>
<path style="fill-rule:nonzero;fill:url(#linear5);stroke-width:3;stroke-linecap:round;stroke-linejoin:round;stroke:rgb(12.941177%,12.941177%,12.941177%);stroke-opacity:1;stroke-miterlimit:4;" d="M 150.860594 -134.257711 L 166.734078 -134.257711 C 171.10866 -134.257711 174.608326 -130.758045 174.608326 -126.383462 C 174.608326 -122.00888 171.10866 -118.384226 166.734078 -118.384226 L 150.860594 -118.384226 C 146.486011 -118.384226 142.861357 -122.00888 142.861357 -126.383462 C 142.861357 -130.758045 146.486011 -134.257711 150.860594 -134.257711 Z M 150.860594 -134.257711 " transform="matrix(0.031253,0,0,0.031253,0,6.719392)"/>
<path style="fill-rule:nonzero;fill:url(#linear6);stroke-width:3;stroke-linecap:round;stroke-linejoin:round;stroke:rgb(12.941177%,12.941177%,12.941177%);stroke-opacity:1;stroke-miterlimit:4;" d="M 341.342403 -134.257711 L 357.215888 -134.257711 C 361.59047 -134.257711 365.090136 -130.758045 365.090136 -126.383462 C 365.090136 -122.00888 361.59047 -118.384226 357.215888 -118.384226 L 341.342403 -118.384226 C 336.967821 -118.384226 333.343167 -122.00888 333.343167 -126.383462 C 333.343167 -130.758045 336.967821 -134.257711 341.342403 -134.257711 Z M 341.342403 -134.257711 " transform="matrix(0.031253,0,0,0.031253,0,6.719392)"/>
<path style="fill-rule:nonzero;fill:url(#linear7);stroke-width:3;stroke-linecap:round;stroke-linejoin:round;stroke:rgb(12.941177%,12.941177%,12.941177%);stroke-opacity:1;stroke-miterlimit:4;" d="M 293.721951 -134.257711 L 309.595435 -134.257711 C 313.970017 -134.257711 317.469683 -130.758045 317.469683 -126.383462 C 317.469683 -122.00888 313.970017 -118.384226 309.595435 -118.384226 L 293.721951 -118.384226 C 289.347369 -118.384226 285.722715 -122.00888 285.722715 -126.383462 C 285.722715 -130.758045 289.347369 -134.257711 293.721951 -134.257711 Z M 293.721951 -134.257711 " transform="matrix(0.031253,0,0,0.031253,0,6.719392)"/>
<path style=" stroke:none;fill-rule:nonzero;fill:url(#linear8);" d="M 2.6875 4.136719 L 13.1875 4.136719 L 13.1875 4.753906 L 2.6875 4.753906 Z M 2.6875 4.136719 "/>
</g>
</svg>

<svg xmlns="http://www.w3.org/2000/svg" width="16pt" height="16pt" viewBox="0 0 16 16"><defs><linearGradient id="a" gradientUnits="userSpaceOnUse" x1="254" y1="233.5" x2="254" y2="254.667" gradientTransform="matrix(.03125 0 0 .03125 0 6.72)"><stop offset="0" stop-opacity=".275"/><stop offset="1" stop-opacity="0"/></linearGradient><radialGradient id="b" gradientUnits="userSpaceOnUse" cx="450.909" cy="189.579" fx="450.909" fy="189.579" r="21.167" gradientTransform="matrix(0 -.03907 -.07032 0 25.073 31.798)"><stop offset="0" stop-opacity=".314"/><stop offset=".222" stop-opacity=".275"/><stop offset="1" stop-opacity="0"/></radialGradient><radialGradient id="c" gradientUnits="userSpaceOnUse" cx="450.909" cy="189.579" fx="450.909" fy="189.579" r="21.167" gradientTransform="matrix(0 .03907 .07032 0 -9.197 -3.764)"><stop offset="0" stop-opacity=".314"/><stop offset=".222" stop-opacity=".275"/><stop offset="1" stop-opacity="0"/></radialGradient><radialGradient id="d" gradientUnits="userSpaceOnUse" cx="450.909" cy="189.579" fx="450.909" fy="189.579" r="21.167" gradientTransform="matrix(0 -.03907 .07032 0 -9.197 31.798)"><stop offset="0" stop-opacity=".314"/><stop offset=".222" stop-opacity=".275"/><stop offset="1" stop-opacity="0"/></radialGradient><radialGradient id="e" gradientUnits="userSpaceOnUse" cx="450.909" cy="189.579" fx="450.909" fy="189.579" r="21.167" gradientTransform="matrix(0 .03907 -.07032 0 25.073 -3.764)"><stop offset="0" stop-opacity=".314"/><stop offset=".222" stop-opacity=".275"/><stop offset="1" stop-opacity="0"/></radialGradient><linearGradient id="f" gradientUnits="userSpaceOnUse" x1="323.513" y1="-141.415" x2="323.513" y2="-25.792" gradientTransform="matrix(.03767 0 0 .1087 -2.927 16.82)"><stop offset="0" stop-color="#bdbdbd"/><stop offset="1" stop-color="#fafafa"/></linearGradient><linearGradient id="g" gradientUnits="userSpaceOnUse" x1="960" y1="935.118" x2="960" y2="175.118"><stop offset="0" stop-color="#42a5f5"/><stop offset="1" stop-color="#64b5f6"/></linearGradient><linearGradient id="h" gradientUnits="userSpaceOnUse" x1="105.833" y1="-105.167" x2="105.833" y2="-121.042" gradientTransform="translate(148.167 -13.23)"><stop offset="0" stop-color="#cfd8dc"/><stop offset="1" stop-color="#eceff1"/></linearGradient><linearGradient id="i" gradientUnits="userSpaceOnUse" x1="105.833" y1="-105.167" x2="105.833" y2="-121.042" gradientTransform="translate(100.542 -13.23)"><stop offset="0" stop-color="#cfd8dc"/><stop offset="1" stop-color="#eceff1"/></linearGradient><linearGradient id="j" gradientUnits="userSpaceOnUse" x1="105.833" y1="-105.167" x2="105.833" y2="-121.042" gradientTransform="translate(52.917 -13.23)"><stop offset="0" stop-color="#cfd8dc"/><stop offset="1" stop-color="#eceff1"/></linearGradient><linearGradient id="k" gradientUnits="userSpaceOnUse" x1="105.833" y1="-105.167" x2="105.833" y2="-121.042" gradientTransform="translate(243.417 -13.23)"><stop offset="0" stop-color="#cfd8dc"/><stop offset="1" stop-color="#eceff1"/></linearGradient><linearGradient id="l" gradientUnits="userSpaceOnUse" x1="105.833" y1="-105.167" x2="105.833" y2="-121.042" gradientTransform="translate(195.792 -13.23)"><stop offset="0" stop-color="#cfd8dc"/><stop offset="1" stop-color="#eceff1"/></linearGradient><linearGradient id="m" gradientUnits="userSpaceOnUse" x1="254" y1="-84" x2="254" y2="-62.833" gradientTransform="matrix(.03113 0 0 .03125 .01 6.72)"><stop offset="0" stop-opacity=".235"/><stop offset="1" stop-opacity="0"/></linearGradient></defs><path d="M3.969 14.016h7.937v.664H3.97zm0 0" fill="url(#a)"/><path d="M11.906 14.016h1.324v-.66h-1.324zm0 0" fill="url(#b)"/><path d="M3.969 14.016H2.645v.664h1.324zm0 0" fill="url(#c)"/><path d="M3.969 14.016H2.645v-.66h1.324zm0 0" fill="url(#d)"/><path d="M11.906 14.016h1.324v.664h-1.324zm0 0" fill="url(#e)"/><path d="M3.309 1.45h9.261c.364 0 .66.296.66.66v11.245a.66.66 0 0 1-.66.66H3.31a.66.66 0 0 1-.664-.66V2.11c0-.363.296-.66.664-.66zm0 0" fill="url(#f)"/><path d="M400.12 175.259c-44.406 0-80.308 35.43-80.308 79.835V495.07h1280.193V255.094c0-44.405-35.902-79.835-79.835-79.835zm0 0" transform="rotate(.882) scale(.00827)" fill="url(#g)" stroke-width="11.339" stroke-linecap="round" stroke-linejoin="round" stroke="#212121"/><path d="M4.629 7.07h5.625c.184 0 .332.13.332.285v.09c0 .16-.149.29-.332.29H4.629c-.18 0-.328-.13-.328-.29v-.09c0-.156.148-.285.328-.285zm0 0" fill="#78909c" fill-opacity=".906"/><path d="M3.309 13.98a.664.664 0 0 1-.664-.664v-.082c0 .368.296.664.664.664h9.261c.364 0 .66-.296.66-.664v.082a.663.663 0 0 1-.66.664zm0 0" fill-opacity=".196"/><path d="M4.629 5.418h6.617c.184 0 .332.105.332.242v.176c0 .137-.148.242-.332.242H4.63c-.18 0-.328-.105-.328-.242V5.66c0-.137.148-.242.328-.242zm0 0M4.629 8.727h6.617c.184 0 .332.132.332.3v.059c0 .164-.148.3-.332.3H4.63c-.18 0-.328-.136-.328-.3v-.059c0-.168.148-.3.328-.3zm0 0" fill="#424242" fill-opacity=".906"/><path d="M3.309 1.484a.664.664 0 0 0-.664.664v.082c0-.367.296-.664.664-.664h9.261c.364 0 .66.297.66.664v-.082a.663.663 0 0 0-.66-.664zm0 0" fill="#fff" fill-opacity=".588"/><path d="M3.309 1.402a.708.708 0 0 0-.711.707v11.246c0 .391.316.707.71.707h9.262c.39 0 .707-.316.707-.707V2.11a.707.707 0 0 0-.707-.707zm0 .094h9.261c.34 0 .614.274.614.613v11.246c0 .34-.274.614-.614.614H3.31a.613.613 0 0 1-.618-.614V2.11c0-.34.274-.613.618-.613zm0 0" fill="#212121"/><path d="M4.629 10.379h4.3c.184 0 .333.113.333.254v.152c0 .14-.149.254-.332.254H4.629c-.18 0-.328-.113-.328-.254v-.152c0-.14.148-.254.328-.254zm0 0" fill="#78909c" fill-opacity=".906"/><path d="M246.101-134.258h15.874c4.375 0 7.874 3.5 7.874 7.875 0 4.374-3.5 7.999-7.874 7.999h-15.874c-4.374 0-7.999-3.625-7.999-8 0-4.374 3.625-7.874 8-7.874zm0 0" transform="matrix(.03125 0 0 .03125 0 6.72)" fill="url(#h)" stroke-width="3" stroke-linecap="round" stroke-linejoin="round" stroke="#212121"/><path d="M198.481-134.258h15.874c4.374 0 7.874 3.5 7.874 7.875 0 4.374-3.5 7.999-7.874 7.999H198.48c-4.375 0-8-3.625-8-8 0-4.374 3.625-7.874 8-7.874zm0 0" transform="matrix(.03125 0 0 .03125 0 6.72)" fill="url(#i)" stroke-width="3" stroke-linecap="round" stroke-linejoin="round" stroke="#212121"/><path d="M150.86-134.258h15.874c4.375 0 7.874 3.5 7.874 7.875 0 4.374-3.5 7.999-7.874 7.999h-15.873c-4.375 0-8-3.625-8-8 0-4.374 3.625-7.874 8-7.874zm0 0" transform="matrix(.03125 0 0 .03125 0 6.72)" fill="url(#j)" stroke-width="3" stroke-linecap="round" stroke-linejoin="round" stroke="#212121"/><path d="M341.342-134.258h15.874c4.374 0 7.874 3.5 7.874 7.875 0 4.374-3.5 7.999-7.874 7.999h-15.874c-4.374 0-7.999-3.625-7.999-8 0-4.374 3.625-7.874 8-7.874zm0 0" transform="matrix(.03125 0 0 .03125 0 6.72)" fill="url(#k)" stroke-width="3" stroke-linecap="round" stroke-linejoin="round" stroke="#212121"/><path d="M293.722-134.258h15.873c4.375 0 7.875 3.5 7.875 7.875 0 4.374-3.5 7.999-7.875 7.999h-15.873c-4.375 0-8-3.625-8-8 0-4.374 3.625-7.874 8-7.874zm0 0" transform="matrix(.03125 0 0 .03125 0 6.72)" fill="url(#l)" stroke-width="3" stroke-linecap="round" stroke-linejoin="round" stroke="#212121"/><path d="M2.688 4.137h10.5v.617h-10.5zm0 0" fill="url(#m)"/></svg>
